X: 40672
T: Top Road
R: polka
M: 2/4
K: Gmajor
|:D|G>A Bc|dB c/B/A|GA Bd|c/B/A AD|
G>A Bc|dB c/B/A|GB d>c|BG G:|
|:f|gg/g/ fg|eB dB|GA Bd|c/B/A Af|
gg/g/ fg|eB dB|GB d>c|BG G:|

